svgs/sharp-solid/fort.svg

<svg xmlns="http://www.w3.org/2000/svg" viewBox="0 0 640 512"><!--! Font Awesome Pro 6.6.0 by @fontawesome - https://fontawesome.com License - https://fontawesome.com/license (Commercial License) Copyright 2024 Fonticons, Inc. --><path d="M0 0L64 0l0 64 32 0L96 0l64 0 0 64 32 0 0-64 64 0 0 64 0 64 0 32 128 0 0-32 0-64 0-64 64 0 0 64 32 0 0-64 64 0 0 64 32 0 0-64 64 0 0 64 0 64 0 64-32 32 0 288-224 0 0-128c0-35.3-28.7-64-64-64s-64 28.7-64 64l0 128L32 512l0-288L0 192l0-64L0 64 0 0z"/></svg>

<svg xmlns="http://www.w3.org/2000/svg" viewBox="0 0 640 512"><!--! Font Awesome Pro 6.4.0 by @fontawesome - https://fontawesome.com License - https://fontawesome.com/license (Commercial License) Copyright 2023 Fonticons, Inc. --><path d="M0 0H64V64H96V0h64V64h32V0h64V64v64 32H384V128 64 0h64V64h32V0h64V64h32V0h64V64v64 64l-32 32V512H384V384c0-35.3-28.7-64-64-64s-64 28.7-64 64V512H32V224L0 192V128 64 0z"/></svg>
